X: 34121
T: Reel Drouin
R: reel
M: 4/4
K: Amajor
efed cdeg|fefg abaf|edcA E2GB-|BBGB A3A|
efed cdeg|fefg abaf|[M:3/2]edcA E2GB A3A:|
[M:4/4]A,2C E2 ECE|DB,DB, A,2CE-|[M:3/2]EECE DB,^G,B,A,3B,|[M:4/4]A,2C E2 ECE|
[1 DB,DB, A,2CE-|[M:3/2 ]EECE DB,^G,B,A,3B,:|2 DB,DB, A,3B,|CDE3 ECE|DB,G,B, A,4||

